X: 31071
T: Paddy Cronin's
R: reel
M: 4/4
K: Edorian
|:ED|B,E{G/}ED EFGA|(3BdB eB dBAd|BE{G/}ED EGFE|DB, ~B,2 DFED|
B,E{G/}ED EFGA|(3BdB eB dBAF|GEFE DB,B,d|BFAF E2:|
|:FA|Beeg (3faf ec|dBAF ADFA|Beeg (3faf ef|dBAF {A/}FEEA|
Beeg (3faf ec|dBAF ADFA|GEFE DB,B,d|BFAF E2:|

